X: 107
T:Knocknago
R:jig
Z:added by Alf 
M:6/8
L:1/8
Q:3/8=120
K:Am
|:EAB ~c3| EG^F GAB|EAB ~c3| ~d3 ecA|EAB cBc|EG^F GAB|eag edB|cAA A2 E:|
|:Aab ~a3| ede ~g3| Aab aec|de^f gdB|Aab ~a3| ede ~g3| efe dcB|cAA A2B:|
|:ece dcB|cAF ECE|AGA ~c3| ~d3 Bcd|dfe dcB|cAF ECE|Ace aed|[1 cAA A3 :|[2 cAA A2 |
K:A
|:c/2d/2|eaf ~=g3| a2f ecA|dfa ecA|dBB Bcd|ecA fdB|~a3 ecA|dfg aed|[1cAA A2:|[2 cAA A3|]
